icons/transverse-hexagon-16.svg

<?xml version="1.0" encoding="UTF-8"?><svg id="icons" xmlns="http://www.w3.org/2000/svg" viewBox="0 0 16 16"><defs><style>.cls-1{fill:none;opacity:.5;}</style></defs><path d="M1,1V15H15V1H1ZM7,7.2323v-2.4646l2.5-1.66663,2.5,1.66663v2.4646l-2.5,1.66663-2.5-1.66663Zm2,2.5354v2.4646l-2.5,1.66663-2.5-1.66663v-2.4646l2.5-1.66663,2.5,1.66663Zm0-7.5354l-2.5,1.66663-2.5-1.66663v-.2323h5v.2323Zm-3,2.5354v2.4646l-2.5,1.66663-1.5-.99994v-3.79797l1.5-.99994,2.5,1.66663Zm-3,5v2.4646l-1,.66669v-3.79797l1,.66669Zm.5,3.33337l1.34851,.89893H2.15149l1.34851-.89893Zm6,0l1.34851,.89893h-2.69702l1.34851-.89893Zm3,.79785l-2.5-1.66663v-2.4646l2.5-1.66663,1.5,.99994v3.79797l-1.5,.99994Zm.5-6.66663v-2.4646l1-.66669v3.79797l-1-.66669Zm1-4.33331l-1.5,.99994-2.5-1.66663v-.2323h4v.89899ZM3,2v.2323l-1,.66669v-.89899h1Z"/><rect class="cls-1" width="16" height="16"/></svg>

<svg xmlns="http://www.w3.org/2000/svg" viewBox="0 0 16 16"><path d="M1 1v14h14V1H1zm6 6.232V4.768L9.5 3.1 12 4.768v2.464L9.5 8.9 7 7.232zm2 2.536v2.464L6.5 13.9 4 12.232V9.768L6.5 8.1 9 9.768zm0-7.536L6.5 3.9 4 2.232V2h5v.232zM6 4.768v2.464L3.5 8.9 2 7.9V4.101l1.5-1L6 4.768zm-3 5v2.464L2 12.9V9.101l1 .667zm.5 3.333L4.849 14H2.15l1.349-.899zm6 0l1.349.899H8.15l1.349-.899zm3 .798L10 12.232V9.768L12.5 8.1l1.5 1v3.798l-1.5 1zm.5-6.667V4.768l1-.667v3.798l-1-.667zM14 2.9l-1.5 1L10 2.232V2h4v.899zM3 2v.232L2 2.9V2h1z"/><path fill="none" opacity=".5" d="M0 0h16v16H0z"/></svg>
